!! 00000] TT[WS
!!!OTL: A yuyu
!!!ARE: Asia, China, Shanxi Shouyang
!! Ethnic Group: Han
!! WII, 113 (3)
!!!SCT: J0572
!!!YEM: Copyright 1995, estate of Helmut Schaffrath.
**kern
*ICvox
*Ivox
*M2/4
*k[f#c#g#]
*A:
{8cc#
4ee
8ff#
=1
4ee
4b
=2
8cc#
4ee
8b
=3
8a
8f#
8a
8b}
=4
{8cc#
4ee
8cc#
=5
4b
4cc#
=6
8g#
8f#
4e
=7
8a
4b
8f#
=8
2e}
==
!!!AGN: Xiaodiao. Qingge, Sichun
!!!ONB: ESAC (Essen Associative Code) Database: CHINA
!!!AMT: simple duple
!!!AIN: vox
!!!EED: Helmut Schaffrath
!!!EEV: 1.0
*-
